X:1
T:Psalm 132
T:V 2
L:1/4
M:14/4
I:linebreak $
K:D
V:1 treble nm="Pipe Organ" snm="Org."
V:1
 F2 E G F2 B2 A G F3 z |$ F2 G F E D G2 F2 E3 z |$ B2 c d B d c2 B2 A3 z |$ %3
w: "Ek sal my wo- ning nie be- tree,|my nie be- geef na stil- le stee|waar ek my o- ë rus sal gee,|
 F2 A A B2 c2 d c B3 z |$[M:16/4] F2 A2 E2 G F A2 G2 F4 |] %5
w: my o- ë- le- de slui- me- ring,|voor- dat ek hier- die eed vol- bring,|

